X:1
T:Nicola
C:Kathy Talvitie
M:3/2
K:A
L:1/4
|:"A"e3f/2e/2 "E"df|"A"eG(A2A)G/2A/2|"f#m"c2FB/2A/2 "E"G/2A/2B|
"A"ce"D"F2"E"GE|"A"f2c/2d/2f/2e/2"D"dB/2c/2|"bm"dc/2d/2"E/G#"B2"E/F#"AG|
"D"FG/2A/2"A/C#"AC"bm"DB,|1"E"DG"A"(A2A/2)B/2c/2d/2:|2"E"DG"A"(A2A>)E||
|:"D"FD"e"GF/2G/2"A/C#"AC|"bm"DGAG/2A/2"E"B2|\
"A"e2"E/G#"f/2e/2d/2f/2"f#m"eG/2A/2|
"E"BE"D"FG/2A/2"A/C#"AE|\
"D"FG/2A/2"E"A2B2|"A"e2c/2d/2f/2e/2"bm"dc/2B/2|
"E"GE"D"FG/2A/2"A/C#"AC|\
|1"bm"DB,"E"DG"A"Ac/2b/2:|2"bm"DB,"E"DG"A"A2||


